icons/guide-fill.svg

<svg viewBox="0 0 24 24" fill="currentColor" xmlns="http://www.w3.org/2000/svg"><path d="M13 8V16C13 17.6569 11.6569 19 10 19H7.82929C7.41746 20.1652 6.30622 21 5 21C3.34315 21 2 19.6569 2 18C2 16.3431 3.34315 15 5 15C6.30622 15 7.41746 15.8348 7.82929 17H10C10.5523 17 11 16.5523 11 16V8C11 6.34315 12.3431 5 14 5H17V2L22 6L17 10V7H14C13.4477 7 13 7.44772 13 8Z"/></svg>

<svg xmlns="http://www.w3.org/2000/svg" viewBox="0 0 24 24">
    <g>
        <path fill="none" d="M0 0h24v24H0z"/>
        <path d="M13 8v8a3 3 0 0 1-3 3H7.83a3.001 3.001 0 1 1 0-2H10a1 1 0 0 0 1-1V8a3 3 0 0 1 3-3h3V2l5 4-5 4V7h-3a1 1 0 0 0-1 1z"/>
    </g>
</svg>
